!!!COM: Henri Reber
!!!CNT: Francais
!!!TXO: Francais
!!!OTL: Hai Luli
!!!LYR: Xavier de Maistre
!!!ENC: Jacob Pegg
!!!ODT: 1837/
!!!YOR: Romantic French Song 1830-1870, David Tunley, ed., New York: Garland Publishing, Inc., 1995, vol. 3
!!NB: Vocal melody and text only encoded.
!!NB: First instance of melodic material only encoded.
**kern	**silbe
*clef G2	*
*k[b-]	*
*M6/8	*
=1	=1
4r	.
8r	.
{4f	{Je
8a	suis
=2	=2
4.cc	tris-
4a	-te,
8cc	je
=3	=3
(8dd	m'in-
8cc)	|
8b-	-qui-
4cc	-e\-
8cc}	-te,}
=4	=4
{8a	{Je
8cc	ne
8ff	sais
(4dd	plus
8cc)	|
=5	=5
8a	que
8a	de
8g	ve-
4f}	-nir.}
8r	.
=6	=6
{8g	{Mon
8g	bon
8g	a-
4b-	-mi
8b-	de-
=7	=7
4b-	-vait
8f	ve-
4.a}	-nir,}
=8	=8
{8g	{Et
8g	je
8g	l'at-
4g	-tends
8g	i-
=9	=9
4f	-ci
8g	seu-
4.a	-let-
=10	=10
4g}	-te.}
8r	.
4r	.
{(8a	{Ha-
=11	=11
4dd)	-i
8a	lu-
4cc	-li,
(8a	ha-
=12	=12
4dd)	-i
8a	lu-
4cc}	-li,}
{8f	{Qu'il
=13	=13
8g	fait
8a	tris-
8cc	-te
8a	sans
8g	son
8f	a-
=14	=14
4.f}	-mi!}
4r	.
8r	.
*-	*-
